X: 20926
T: Journey By Train, The
R: reel
M: 4/4
K: Edorian
|:E2BE DE (3FED|E2BE ADFD|E2BE DEFA|ABdf efdA|
BEFE DE(3FED|E2FE DB,A,B,|DEFA B2Ad|1 BBAF EDB,D:|2 B/c/dAF E2Bd||
e2be Befe|befe dBAB|d2(3fed adfd|BdAB de(3fed|
e2be Bege|fd(3edc defa|bfaf gfed|BdAF EBdf|
e2be Befe|befe dBAB|d2(3fed adfd|adfd ABdf|
e2be dfed|BdAB defa|bfab faed|BdAF E4||

